X: 1863
T: Arkle Mountain
R: reel
M: 4/4
K: Gmajor
|:A3d AGFG|Addf gecA|Addc defg|af ((3gfe) fdec|
Add^c AGFG|Addf gecA|d2^cA ((3Bcd) AF|GEAG FDD2:|
|:a3f gfe^c|deed ^cAAf|a3f gfe^c|dfaf defg|
a2af gfe^c|deed ^cAGB|AddB c2BA|GEcE EDD2:|

